X: 1
T: The Road To Errogie
R: reel
M: 4/4
L: 1/8
K: Gmaj
DGG2 AGAB|dGG2 ABdB|e3g dBG2|A3B AGEG|
DGG2 AGAB|dGG2 ABdB|e3g dBG2|AG F/E/D G2 BG:|
dgg2 g2ag|ab2a g3d|e2dg2de2-|edgd edBc|
dgg2 g2ag|ab2a g3d|e3g dBGE|AG F/E/D G4|
dgg2 g2ag|ab2a g3d|e2dg2de2-|edgd edBG|
DGG2 AGAB|dGG2 ABdB|e3g dBG2|AG F/E/D G2 BG||


Tune 5270	Setting 22806

